X: 36911
T: Shootin' The Bull
R: polka
M: 2/4
K: Adorian
|:eA Ad|ef gf|eA Ae|d2 d2|
eA Ad|ef gf|ee dB|A2 Bd:|
|:ea ag|ed d2|ea ag|eg g2|
ea ag|ed d2|ee dB|A2 A2:|

